X:260
T: Rising Sun (C)
T: \'Eir\'i na Gr\'eine
S: B.Breathnach: "Ceol Rince na hEireann" II/214ii
Z: B.Black
L: 1/8
M: 4/4
R: reel
K: D
efe|d2 FA ADFA|(3bcd eg fdec|d2 FA ADFD|1 EGFE D :|2\
EGFE D2||
A2|defg afed|cAeA fAeA|defg afed|cABc d2 A2|
defg afed|cAeA fAeA|f3f g2 ag|fgec d ||
